X: 144
T: REEL: Mulqueeney's
T: Mulqueen's / Spindle Shanks
C: C: Trad.; S: Various
C: Set Leaders: Sophie, Anton, Tania
Z: Anton Zille ed.; Jamie at The Session
N: https://thesession.org/members/26966/sets/74626
R: Reel
M: 4/4
L: 1/8
Q: 1/2=100
K: Dmaj
F2 EG FDDE|FDAG FDDE|F2 EG FDDE|FABc dBAG|
F2 EG FDDE|FDAG FDDE|F2 EG FDDE|FABc d2 cd||
e2 ed efed|cdef g2 fg|e2 ef efed|cABc d2 cd|
e2 ed efed|cdef gefg|a~f3 g~e3|dfec dBAG||

